X:1
T: Kitty Clyde's Reel.
C:
R:Reel
Q: 232
K:G
M:4/4
L:1/8
|:d|g2 dc B2 GB|Aa ag fd ef|gf gd ec dB|cA dc BG Gd|
g2 dc B2 GB|Aa ag fd ef|gf gd ec dB|cA dc BG Gc|
BG DG EG DG|AB cA ce dc|BG DG EG ce|dB cA BG Gc|
BG DG EG DG|AB cA ce dc|Bd gB ce ag|fd ef g3:|
